svg/cervical_cancer_positive.svg

<?xml version="1.0" encoding="UTF-8" standalone="no"?>
<!-- Created with Inkscape (http://www.inkscape.org/) -->
<svg id="svg8" xmlns:rdf="http://www.w3.org/1999/02/22-rdf-syntax-ns#" xmlns="http://www.w3.org/2000/svg" xmlns:osb="http://www.openswatchbook.org/uri/2009/osb" height="48" width="48" version="1.1" xmlns:cc="http://creativecommons.org/ns#" viewBox="0 0 12.7 12.7" xmlns:dc="http://purl.org/dc/elements/1.1/">
 <title id="title4753">UIO-icon</title>
 <metadata id="metadata5">
  <rdf:RDF>
   <cc:Work rdf:about="">
    <dc:format>image/svg+xml</dc:format>
    <dc:type rdf:resource="http://purl.org/dc/dcmitype/StillImage"/>
    <dc:title>UIO-icon</dc:title>
    <dc:creator>
     <cc:Agent>
      <dc:title>Joaquín Urbano</dc:title>
     </cc:Agent>
    </dc:creator>
    <dc:rights>
     <cc:Agent>
      <dc:title>GPL</dc:title>
     </cc:Agent>
    </dc:rights>
   </cc:Work>
  </rdf:RDF>
 </metadata>
 <g id="layer1" transform="translate(0,-284.3)">
  <path id="path4965" d="m24.002 4.0273c-2.4251 0-4.3926 1.9655-4.3926 4.3906s1.9675 4.3906 4.3926 4.3906 4.3906-1.9655 4.3906-4.3906-1.9655-4.3906-4.3906-4.3906zm-0.4375 9.8633-3.998 0.001953v0.009766c-0.7185 0.014211-1.4042 0.40904-1.7422 1.1016l-4.855 9.942c-0.48037 0.98428-0.072221 2.1642 0.91211 2.6445 0.98433 0.48038 2.1622 0.076269 2.6426-0.9082l3.043-6.2363c0.074269 4.2481-0.21549 7.6589-2.7812 12.627h2.7812v8.9219c0 1.0953 0.87932 1.9766 1.9746 1.9766s1.9766-0.88128 1.9766-1.9766v-8.9219h0.95312v8.9199c0 1.0953 0.88323 1.9785 1.9785 1.9785s1.9766-0.88323 1.9766-1.9785v-8.9199h2.7871c-2.296-4.791-2.787-7.921-2.787-12.642l3.0508 6.252c0.48036 0.98433 1.6602 1.3885 2.6445 0.9082 0.98432-0.48038 1.3886-1.6602 0.9082-2.6445l-4.8535-9.9434c-0.33936-0.69542-1.0282-1.0941-1.75-1.1035v-0.009766h-3.998zm0.44336 10.771c0.41183 0.003405 0.81447 0.050978 1.209 0.13281-0.1462 0.43343-0.32008 0.88706-0.67188 1.3965-0.32475-0.14645-0.85884-0.08435-1.1836 0.013672-0.25669-0.44146-0.45697-0.74299-0.62109-1.4102 0.43366-0.095358 0.85575-0.13643 1.2676-0.13281zm-1.4121 0.27148 0.037109 0.18945c0.052303 0.27718 0.2931 0.73996 0.72656 1.3926 0.20971 0.31573 0.38086 0.58554 0.38086 0.60156 0 0.040513-0.86186 1.2255-0.89062 1.2246-0.013042-0.00047736-0.17758-0.22724-0.36523-0.50391-0.46669-0.68803-0.45273-0.65548-0.42773-1.0566 0.016902-0.27139 0.076778-0.51109 0.2793-1.0977zm2.7773 0 0.26172 0.77148c0.263 0.773 0.331 1.122 0.272 1.421-1.3333 2.5491-2.9484 3.9994-4.5293 6.5488-0.36109-0.38157-0.70691-0.8615-1.0312-1.3008 1.6-2.1775 2.7866-3.7754 4.2852-5.8828 0.38645-0.59169 0.65391-1.1048 0.70312-1.3535zm-0.245 4.051c0.83168 1.1313 1.6645 2.2612 2.4961 3.3926-0.37637 0.50475-0.63814 0.86683-1.0059 1.3242-0.6989-0.93929-1.2647-1.7912-1.9492-2.7441-0.24232-0.34197-0.43245-0.65006-0.42188-0.68555 0.010534-0.035354 0.21379-0.3393 0.45117-0.67578z" fill-rule="evenodd" transform="matrix(.26458 0 0 .26458 0 284.3)" fill="#333"/>
 </g>
</svg>

<svg width="48" height="48" viewBox="0 0 48 48" fill="none" xmlns="http://www.w3.org/2000/svg">
<path fill-rule="evenodd" clip-rule="evenodd" d="M24.0018 4.02734C21.5767 4.02734 19.6093 5.99282 19.6093 8.41789C19.6093 10.843 21.5767 12.8084 24.0018 12.8084C26.4269 12.8084 28.3924 10.843 28.3924 8.41789C28.3924 5.99282 26.4269 4.02734 24.0018 4.02734ZM23.5643 13.8905L19.5664 13.8925V13.9022C18.8479 13.9164 18.1622 14.3113 17.8242 15.0038L12.9693 24.9457C12.4889 25.93 12.897 27.1099 13.8814 27.5902C14.8657 28.0705 16.0435 27.6664 16.5239 26.682L19.5669 20.4458C19.6412 24.6938 19.3514 28.1046 16.7857 33.0726H19.5669V41.9944C19.5669 43.0897 20.4462 43.971 21.5415 43.971C22.6367 43.971 23.518 43.0897 23.518 41.9944V33.0726H24.4711V41.9924C24.4711 43.0877 25.3544 43.9709 26.4496 43.9709C27.5449 43.9709 28.4262 43.0876 28.4262 41.9924V33.0726H31.2133C28.9173 28.2817 28.4263 25.1517 28.4263 20.4308L31.4771 26.6827C31.9574 27.667 33.1372 28.0712 34.1215 27.5909C35.1058 27.1105 35.5101 25.9307 35.0297 24.9464L30.1763 15.0031C29.8369 14.3077 29.1481 13.909 28.4263 13.8996V13.8899H24.4283L23.5643 13.8905ZM24.0077 24.6614C24.4195 24.6648 24.8221 24.7124 25.2167 24.7942C25.0705 25.2276 24.8966 25.6812 24.5448 26.1907C24.22 26.0442 23.686 26.1063 23.3612 26.2043C23.1045 25.7629 22.9042 25.4614 22.7401 24.7942C23.1738 24.6988 23.5959 24.6577 24.0077 24.6614ZM22.5956 24.9329L22.6327 25.1223C22.685 25.3995 22.9258 25.8623 23.3593 26.5149C23.569 26.8306 23.7401 27.1004 23.7401 27.1164C23.7401 27.157 22.8783 28.3419 22.8495 28.341C22.8365 28.3405 22.6719 28.1138 22.4843 27.8371C22.0176 27.1491 22.0316 27.1817 22.0566 26.7805C22.0735 26.5092 22.1333 26.2695 22.3358 25.6829L22.5956 24.9329ZM25.3729 24.9329L25.6346 25.7043C25.8976 26.4773 25.9656 26.8263 25.9066 27.1253C24.5733 29.6744 22.9582 31.1247 21.3773 33.674C21.0162 33.2925 20.6704 32.8125 20.3461 32.3732C21.9461 30.1958 23.1327 28.5979 24.6313 26.4905C25.0177 25.8988 25.2852 25.3857 25.3344 25.137L25.3729 24.9329ZM25.1279 28.9838C25.9595 30.1151 26.7923 31.245 27.6239 32.3764C27.2476 32.8811 26.9858 33.2432 26.618 33.7005C25.9192 32.7613 25.3534 31.9094 24.6689 30.9565C24.4266 30.6145 24.2364 30.3064 24.247 30.2709C24.2575 30.2356 24.4608 29.9316 24.6982 29.5952L25.1279 28.9838Z" fill="#333333"/>
</svg>
